X:1
T: Love's Young Dream
C:
R:Jig
Q:180
K:G
M:6/8
L:1/16
|:dc|B4G2 A4E2|G4E2 D4G2|A6A6|A6-A4dc|
B4G2 A4E2|G4E2 D2E2F2|G6G6|G6-G4A2|
B4c2 d4d2|e4f2 g4e2|d4B2 A4G2|A6-A4dc|
B4G2 A4E2|G4E2 D2E2F2|G6G6|G6-G4:|
